X:1
T:Petty Harbour Bait Skiff
M:2/4
L:1/8
K:Eb
 B,E B,| E2- EF| Ge c2-| c2B-A| GE DF| E2- EB| ed c2-| ced/2-c/2B/2-G/2|\
 F2- G2| B2 cc| d2 c2| B4| B2
M:2/4
| ed c2-| ced/2-c/2B/2-G/2|
M:3/4
 F2- G2| B2| cc d2 c2| B3 B,E B,|
M:2/4
 E2- EF| Ge c2-| c2 BA| GE DF| E4|
